docs/src/routes/docs/decorations/decoration.svg

<svg class="typst-doc" viewBox="0 0 85.19583110236223 123.38582677165354" width="85.19583110236223pt" height="123.38582677165354pt" xmlns="http://www.w3.org/2000/svg" xmlns:xlink="http://www.w3.org/1999/xlink" xmlns:h5="http://www.w3.org/1999/xhtml">
    <path class="typst-shape" fill="#ffffff" fill-rule="nonzero" d="M 0 0 L 0 123.385826 L 85.19583 123.385826 L 85.19583 0 Z "/>
    <g>
        <g transform="translate(5 5)">
            <g class="typst-group">
                <g>
                    <g transform="translate(62.908831102362235 53.007913385826775)">
                        <path class="typst-shape" fill="none" d="M 0 0 L 12.287 0 L 12.287 7.37 L 0 7.37 L 0 0 Z "/>
                    </g>
                    <g transform="translate(62.908831039370085 53.00791327559055)">
                        <g class="typst-group">
                            <g>
                                <g transform="translate(0 0)">
                                    <g class="typst-group">
                                        <g>
                                            <g transform="translate(0 7.238)">
                                                <g class="typst-text" transform="scale(1, -1)">
                                                    <use xlink:href="#g59FDDD5E0FE4FB61395B3BF25C03A511" x="0" fill="#000000" fill-rule="nonzero"/>
                                                    <use xlink:href="#g9C4BBEEAEE0F133B1F7FD0AEA8271797" x="5.115" fill="#000000" fill-rule="nonzero"/>
                                                </g>
                                            </g>
                                        </g>
                                    </g>
                                </g>
                            </g>
                        </g>
                    </g>
                    <g transform="translate(40.172209055118124 71.71653543307086)">
                        <path class="typst-shape" fill="none" stroke="#000000" stroke-width="0.4" stroke-linecap="butt" stroke-linejoin="miter" stroke-miterlimit="4" d="M 0 41.669292 L 0 0 "/>
                    </g>
                    <g transform="translate(40.172209055118124 0)">
                        <path class="typst-shape" fill="none" stroke="#000000" stroke-width="0.4" stroke-linecap="butt" stroke-linejoin="miter" stroke-miterlimit="4" d="M 0 0 L 0 41.669292 "/>
                    </g>
                    <g transform="translate(38.47142165354332 18.566929133858267)">
                        <path class="typst-shape" fill="#000000" fill-rule="nonzero" stroke="#000000" stroke-width="1" stroke-linecap="butt" stroke-linejoin="miter" stroke-miterlimit="4" d="M 1.7007874 0 L 0 4.5354333 L 3.4015749 4.5354333 L 1.7007874 0 Z "/>
                    </g>
                    <g transform="translate(48.95835039370081 15.719645669291333)">
                        <path class="typst-shape" fill="none" d="M 0 0 L 8.7923 0 L 8.7923 10.23 L 0 10.23 L 0 0 Z "/>
                    </g>
                    <g transform="translate(48.958350330708676 15.71964562204724)">
                        <g class="typst-group">
                            <g>
                                <g transform="translate(0 0)">
                                    <g class="typst-group">
                                        <g>
                                            <g transform="translate(0 7.513000000000001)">
                                                <g class="typst-text" transform="scale(1, -1)">
                                                    <use xlink:href="#gFCFC650087BD8703E5BC3ECF0E1FCEB4" x="0" fill="#000000" fill-rule="nonzero"/>
                                                </g>
                                            </g>
                                            <g transform="translate(3.795 10.23)">
                                                <g class="typst-text" transform="scale(1, -1)">
                                                    <use xlink:href="#gCECD8398F41BD08C11283B403CBB89A7" x="0" fill="#000000" fill-rule="nonzero"/>
                                                </g>
                                            </g>
                                        </g>
                                    </g>
                                </g>
                            </g>
                        </g>
                    </g>
                    <g transform="translate(0 51.57791338582677)">
                        <path class="typst-shape" fill="none" d="M 0 0 L 11.2893 0 L 11.2893 10.23 L 0 10.23 L 0 0 Z "/>
                    </g>
                    <g transform="translate(-0.00000004724409347373715 51.57791333858268)">
                        <g class="typst-group">
                            <g>
                                <g transform="translate(0 0)">
                                    <g class="typst-group">
                                        <g>
                                            <g transform="translate(0 7.513000000000001)">
                                                <g class="typst-text" transform="scale(1, -1)">
                                                    <use xlink:href="#g967BAD3BCECA83BEC48D9B1B98C0F28E" x="0" fill="#000000" fill-rule="nonzero"/>
                                                </g>
                                            </g>
                                            <g transform="translate(6.292 10.23)">
                                                <g class="typst-text" transform="scale(1, -1)">
                                                    <use xlink:href="#gCECD8398F41BD08C11283B403CBB89A7" x="0" fill="#000000" fill-rule="nonzero"/>
                                                </g>
                                            </g>
                                        </g>
                                    </g>
                                </g>
                            </g>
                        </g>
                    </g>
                    <g transform="translate(16.644650000000002 36.735685002421114)">
                        <path class="typst-shape" fill="none" stroke="#000000" stroke-width="0.55" stroke-linecap="butt" stroke-linejoin="miter" stroke-miterlimit="4" d="M 5.6692915 46.31943 C 2.843567 37.72759 0 29.015789 0 19.957228 C 0 13.14065 1.610193 6.5204268 3.611277 0 "/>
                    </g>
                    <g transform="translate(18.315987962992136 31.076362488188977)">
                        <path class="typst-shape" fill="#000000" fill-rule="nonzero" stroke="#000000" stroke-width="0.55" stroke-linecap="butt" stroke-linejoin="miter" stroke-miterlimit="4" d="M 3.7583637 0 L 0 4.7471437 L 4.0481296 6.0478683 L 3.7583637 0 Z "/>
                    </g>
                    <g transform="translate(25.148587007874024 41.669291338582674)">
                        <path class="typst-shape" fill="#ffffff" fill-rule="nonzero" stroke="#000000" stroke-width="0.8" stroke-linecap="butt" stroke-linejoin="miter" stroke-miterlimit="4" d="M 0 15.0236225 C 0 23.313416 6.7338276 30.047245 15.0236225 30.047245 C 23.313416 30.047245 30.047245 23.313416 30.047245 15.0236225 C 30.047245 6.7338276 23.313416 0 15.0236225 0 C 6.7338276 0 0 6.7338276 0 15.0236225 Z "/>
                    </g>
                    <g transform="translate(40.172209055118124 41.669291338582674)">
                        <path class="typst-shape" fill="none" stroke="#000000" stroke-width="0.8" stroke-linecap="butt" stroke-linejoin="miter" stroke-miterlimit="4" d="M 0 30.047245 L 0 0 "/>
                    </g>
                </g>
            </g>
        </g>
    </g>
    <defs id="glyph">
        <symbol id="g59FDDD5E0FE4FB61395B3BF25C03A511" overflow="visible">
            <path d="M 3.509 2.079 C 3.509 1.034 2.9589999 0.264 2.299 0.264 C 1.881 0.264 1.738 0.539 1.573 0.759 C 1.43 0.946 1.243 1.111 1.012 1.111 C 0.803 1.111 0.594 0.924 0.594 0.704 C 0.594 0.253 1.529 -0.121 2.156 -0.121 C 3.52 -0.121 4.488 0.891 4.488 2.277 C 4.488 3.3439999 3.751 4.301 2.519 4.301 C 2.046 4.301 1.6389999 4.202 1.441 4.125 L 1.661 5.962 C 2.068 5.9179997 2.42 5.863 2.948 5.863 C 3.2779999 5.863 3.652 5.8849998 4.103 5.929 L 4.279 6.677 L 4.202 6.721 C 3.575 6.6549997 2.981 6.6 2.398 6.6 C 1.9909999 6.6 1.595 6.6219997 1.21 6.6549997 L 0.83599997 3.487 C 1.419 3.707 1.837 3.751 2.233 3.751 C 2.948 3.751 3.509 3.2779999 3.509 2.079 Z "/>
        </symbol>
        <symbol id="g9C4BBEEAEE0F133B1F7FD0AEA8271797" overflow="visible">
            <path d="M 4.928 6.754 C 5.742 6.699 5.742 6.402 5.511 5.808 L 3.773 1.397 L 3.729 1.397 L 1.969 5.874 C 1.716 6.534 1.782 6.677 2.53 6.754 C 2.596 6.82 2.596 7.051 2.53 7.117 C 2.09 7.106 1.595 7.095 1.199 7.095 C 0.803 7.095 0.41799998 7.106 0.055 7.117 C -0.011 7.051 0 6.82 0.066 6.754 C 0.671 6.699 0.759 6.512 1.056 5.753 L 3.223 0.121 C 3.289 -0.055 3.366 -0.132 3.476 -0.132 C 3.597 -0.132 3.674 -0.033 3.74 0.121 L 6.017 5.731 C 6.226 6.248 6.402 6.677 7.095 6.754 C 7.161 6.82 7.161 7.051 7.095 7.117 C 6.765 7.106 6.38 7.095 6.127 7.095 C 5.874 7.095 5.379 7.106 4.928 7.117 C 4.862 7.051 4.862 6.82 4.928 6.754 Z "/>
        </symbol>
        <symbol id="gFCFC650087BD8703E5BC3ECF0E1FCEB4" overflow="visible">
            <path d="M 3.124 6.831 C 3.124 7.128 2.981 7.271 2.684 7.271 C 2.376 7.271 2.068 6.963 2.068 6.6549997 C 2.068 6.358 2.222 6.215 2.519 6.215 C 2.827 6.215 3.124 6.523 3.124 6.831 Z M 2.849 1.518 C 2.6069999 0.649 2.2549999 0.20899999 1.804 0.20899999 C 1.661 0.20899999 1.584 0.308 1.584 0.517 C 1.584 0.704 1.903 1.65 2.552 3.366 C 2.6399999 3.619 2.684 3.817 2.684 3.96 C 2.684 4.499 2.31 4.895 1.771 4.895 C 1.298 4.895 0.924 4.62 0.649 4.059 C 0.429 3.608 0.319 3.3109999 0.319 3.168 C 0.319 3.069 0.374 3.025 0.495 3.025 C 0.638 3.025 0.65999997 3.091 0.704 3.245 C 0.957 4.125 1.298 4.565 1.738 4.565 C 1.881 4.565 1.958 4.466 1.958 4.257 C 1.958 4.103 1.925 3.927 1.848 3.718 C 1.595 3.025 1.331 2.288 1.111 1.705 C 0.946 1.265 0.858 0.968 0.858 0.814 C 0.858 0.275 1.254 -0.121 1.782 -0.121 C 2.2549999 -0.121 2.629 0.154 2.904 0.704 C 3.113 1.133 3.223 1.43 3.223 1.595 C 3.223 1.694 3.168 1.749 3.047 1.749 C 3.014 1.749 2.849 1.65 2.849 1.518 Z "/>
        </symbol>
        <symbol id="gCECD8398F41BD08C11283B403CBB89A7" overflow="visible">
            <path d="M 2.3331 5.1128 C 2.002 4.7894 1.5092 4.6277 0.8393 4.6277 L 0.8393 4.2889 C 1.2936 4.2889 1.6554999 4.3582 1.9327 4.4891 L 1.9327 0.6545 C 1.9327 0.55439997 1.925 0.4928 1.9018999 0.462 C 1.8634 0.3773 1.6324 0.3311 1.2089 0.3311 L 0.8932 0.3311 L 0.8932 0 L 2.2638 0.0308 L 3.6421 0 L 3.6421 0.3311 L 3.3264 0.3311 C 2.9029 0.3311 2.6719 0.3773 2.6257 0.462 C 2.6103 0.4928 2.6026 0.55439997 2.6026 0.6545 L 2.6026 4.8664 C 2.6026 5.0743 2.5718 5.1128 2.3331 5.1128 Z "/>
        </symbol>
        <symbol id="g967BAD3BCECA83BEC48D9B1B98C0F28E" overflow="visible">
            <path d="M 5.973 1.584 C 5.973 1.683 5.9179997 1.738 5.797 1.738 C 5.698 1.738 5.643 1.661 5.61 1.507 C 5.555 1.298 5.5 1.089 5.423 0.88 C 5.2799997 0.429 5.082 0.198 4.84 0.198 C 4.642 0.198 4.5429997 0.352 4.5429997 0.65999997 C 4.5429997 0.847 4.62 1.221 4.763 1.771 L 5.06 2.937 C 5.159 3.333 5.2469997 3.608 5.313 3.949 L 5.379 4.246 C 5.401 4.323 5.412 4.378 5.412 4.411 C 5.412 4.631 5.291 4.741 5.049 4.741 C 4.807 4.741 4.653 4.609 4.587 4.334 L 3.773 1.078 C 3.762 1.045 3.718 0.968 3.6299999 0.83599997 C 3.454 0.55 3.025 0.198 2.585 0.198 C 2.167 0.198 1.958 0.484 1.958 1.045 C 1.958 1.496 2.156 2.222 2.541 3.234 C 2.662 3.564 2.728 3.795 2.728 3.927 C 2.728 4.4769998 2.343 4.862 1.793 4.862 C 1.298 4.862 0.913 4.587 0.638 4.037 C 0.429 3.608 0.319 3.3109999 0.319 3.157 C 0.319 3.058 0.374 3.003 0.495 3.003 C 0.638 3.003 0.65999997 3.069 0.704 3.223 C 0.957 4.103 1.309 4.5429997 1.76 4.5429997 C 1.914 4.5429997 1.9909999 4.433 1.9909999 4.224 C 1.9909999 4.059 1.925 3.828 1.804 3.509 C 1.386 2.398 1.177 1.628 1.177 1.221 C 1.177 0.374 1.705 -0.121 2.552 -0.121 C 3.025 -0.121 3.454 0.099 3.817 0.55 C 3.971 0.099 4.301 -0.121 4.807 -0.121 C 5.566 -0.121 5.797 0.77 5.973 1.584 Z "/>
        </symbol>
    </defs>
</svg>

<svg xmlns="http://www.w3.org/2000/svg" xmlns:xlink="http://www.w3.org/1999/xlink" width="113.594" height="164.514" class="typst-doc" viewBox="0 0 85.196 123.386"><path fill="#fff" d="M0 0v123.386h85.196V0Z" class="typst-shape"/><g class="typst-group"><path fill="none" d="M67.909 58.008h12.287v7.37H67.909z" class="typst-shape"/><g class="typst-group"><g class="typst-group"><g class="typst-text" transform="matrix(1 0 0 -1 67.909 65.246)"><use xlink:href="#a"/><use xlink:href="#b" x="5.115"/></g></g></g><path fill="none" stroke="#000" stroke-width=".4" d="M45.172 118.386v-41.67m0-71.716v41.67" class="typst-shape"/><path stroke="#000" d="m45.172 23.567-1.7 4.535h3.401z" class="typst-shape"/><path fill="none" d="M53.958 20.72h8.793v10.23h-8.793z" class="typst-shape"/><g class="typst-group"><g class="typst-group"><use xlink:href="#c" class="typst-text" transform="matrix(1 0 0 -1 53.958 28.233)"/><use xlink:href="#d" class="typst-text" transform="matrix(1 0 0 -1 57.753 30.95)"/></g></g><path fill="none" d="M5 56.578h11.29v10.23H5z" class="typst-shape"/><g class="typst-group"><g class="typst-group"><use xlink:href="#e" class="typst-text" transform="matrix(1 0 0 -1 5 64.09)"/><use xlink:href="#d" class="typst-text" transform="matrix(1 0 0 -1 11.292 66.808)"/></g></g><path fill="none" stroke="#000" stroke-width=".55" d="M27.314 88.055c-2.826-8.592-5.67-17.304-5.67-26.362 0-6.817 1.61-13.437 3.612-19.957" class="typst-shape"/><path stroke="#000" stroke-width=".55" d="m27.074 36.076-3.758 4.748 4.048 1.3z" class="typst-shape"/><path fill="#fff" stroke="#000" stroke-width=".8" d="M30.149 61.693c0 8.29 6.733 15.024 15.023 15.024s15.024-6.734 15.024-15.024-6.734-15.024-15.024-15.024S30.15 53.403 30.15 61.693Z" class="typst-shape"/><path fill="none" stroke="#000" stroke-width=".8" d="M45.172 76.717V46.669" class="typst-shape"/></g><defs><symbol id="a" overflow="visible"><path d="M3.509 2.079c0-1.045-.55-1.815-1.21-1.815-.418 0-.561.275-.726.495-.143.187-.33.352-.561.352-.209 0-.418-.187-.418-.407 0-.451.935-.825 1.562-.825 1.364 0 2.332 1.012 2.332 2.398 0 1.067-.737 2.024-1.969 2.024-.473 0-.88-.099-1.078-.176l.22 1.837c.407-.044.759-.099 1.287-.099.33 0 .704.022 1.155.066l.176.748-.077.044C3.575 6.655 2.981 6.6 2.398 6.6c-.407 0-.803.022-1.188.055L.836 3.487c.583.22 1.001.264 1.397.264.715 0 1.276-.473 1.276-1.672"/></symbol><symbol id="b" overflow="visible"><path d="M4.928 6.754c.814-.055.814-.352.583-.946L3.773 1.397h-.044l-1.76 4.477c-.253.66-.187.803.561.88.066.066.066.297 0 .363-.44-.011-.935-.022-1.331-.022s-.781.011-1.144.022C-.011 7.051 0 6.82.066 6.754c.605-.055.693-.242.99-1.001L3.223.121c.066-.176.143-.253.253-.253.121 0 .198.099.264.253l2.277 5.61c.209.517.385.946 1.078 1.023.066.066.066.297 0 .363-.33-.011-.715-.022-.968-.022s-.748.011-1.199.022c-.066-.066-.066-.297 0-.363"/></symbol><symbol id="c" overflow="visible"><path d="M3.124 6.831c0 .297-.143.44-.44.44-.308 0-.616-.308-.616-.616 0-.297.154-.44.451-.44.308 0 .605.308.605.616m-.275-5.313C2.607.649 2.255.209 1.804.209c-.143 0-.22.099-.22.308 0 .187.319 1.133.968 2.849q.132.38.132.594c0 .539-.374.935-.913.935-.473 0-.847-.275-1.122-.836q-.33-.677-.33-.891c0-.099.055-.143.176-.143.143 0 .165.066.209.22.253.88.594 1.32 1.034 1.32.143 0 .22-.099.22-.308 0-.154-.033-.33-.11-.539-.253-.693-.517-1.43-.737-2.013C.946 1.265.858.968.858.814c0-.539.396-.935.924-.935q.71 0 1.122.825c.209.429.319.726.319.891 0 .099-.055.154-.176.154-.033 0-.198-.099-.198-.231"/></symbol><symbol id="d" overflow="visible"><path d="M2.333 5.113c-.331-.324-.824-.485-1.494-.485v-.34c.455 0 .816.07 1.094.201V.655q.002-.148-.031-.193-.058-.129-.693-.13H.893V0l1.37.03L3.644 0v.331h-.317q-.633.002-.7.131a.5.5 0 0 0-.023.192v4.212c0 .208-.031.247-.27.247"/></symbol><symbol id="e" overflow="visible"><path d="M5.973 1.584c0 .099-.055.154-.176.154-.099 0-.154-.077-.187-.231-.055-.209-.11-.418-.187-.627C5.28.429 5.082.198 4.84.198q-.297 0-.297.462c0 .187.077.561.22 1.111l.297 1.166c.099.396.187.671.253 1.012l.066.297a.7.7 0 0 1 .033.165q0 .33-.363.33c-.242 0-.396-.132-.462-.407l-.814-3.256A1.5 1.5 0 0 0 3.63.836C3.454.55 3.025.198 2.585.198c-.418 0-.627.286-.627.847 0 .451.198 1.177.583 2.189.121.33.187.561.187.693 0 .55-.385.935-.935.935q-.742 0-1.155-.825c-.209-.429-.319-.726-.319-.88 0-.099.055-.154.176-.154.143 0 .165.066.209.22q.38 1.32 1.056 1.32c.154 0 .231-.11.231-.319 0-.165-.066-.396-.187-.715-.418-1.111-.627-1.881-.627-2.288 0-.847.528-1.342 1.375-1.342.473 0 .902.22 1.265.671.154-.451.484-.671.99-.671.759 0 .99.891 1.166 1.705"/></symbol></defs></svg>
